source/img/dots-menu.svg

<svg width="16" height="16" viewBox="0 0 16 16" fill="none" xmlns="http://www.w3.org/2000/svg">
<g id="a/icon_3_dots_menu">
<rect id="16x16" opacity="0.01" width="16" height="16" fill="#ECF1F8"/>
<g id="Combined Shape">
<mask id="path-2-inside-1" fill="white">
<path fill-rule="evenodd" clip-rule="evenodd" d="M10 2C10 3.10457 9.10457 4 8 4C6.89543 4 6 3.10457 6 2C6 0.89543 6.89543 0 8 0C9.10457 0 10 0.89543 10 2ZM10 8C10 9.10457 9.10457 10 8 10C6.89543 10 6 9.10457 6 8C6 6.89543 6.89543 6 8 6C9.10457 6 10 6.89543 10 8ZM8 16C9.10457 16 10 15.1046 10 14C10 12.8954 9.10457 12 8 12C6.89543 12 6 12.8954 6 14C6 15.1046 6.89543 16 8 16Z"/>
</mask>
<path d="M8 6C10.2091 6 12 4.20914 12 2H8V6ZM4 2C4 4.20914 5.79086 6 8 6V2H4ZM8 -2C5.79086 -2 4 -0.209139 4 2H8V-2ZM12 2C12 -0.209139 10.2091 -2 8 -2V2H12ZM8 12C10.2091 12 12 10.2091 12 8H8V12ZM4 8C4 10.2091 5.79086 12 8 12V8H4ZM8 4C5.79086 4 4 5.79086 4 8H8V4ZM12 8C12 5.79086 10.2091 4 8 4V8H12ZM8 14V18C10.2091 18 12 16.2091 12 14H8ZM8 14H12C12 11.7909 10.2091 10 8 10V14ZM8 14V10C5.79086 10 4 11.7909 4 14H8ZM8 14H4C4 16.2091 5.79086 18 8 18V14Z" fill="#3E4056" mask="url(#path-2-inside-1)"/>
</g>
<mask id="mask0" mask-type="alpha" maskUnits="userSpaceOnUse" x="6" y="0" width="4" height="16">
<g id="Combined Shape_2">
<mask id="path-4-inside-2" mask-type="luminance" fill="white">
<path fill-rule="evenodd" clip-rule="evenodd" d="M10 2C10 3.10457 9.10457 4 8 4C6.89543 4 6 3.10457 6 2C6 0.89543 6.89543 0 8 0C9.10457 0 10 0.89543 10 2ZM10 8C10 9.10457 9.10457 10 8 10C6.89543 10 6 9.10457 6 8C6 6.89543 6.89543 6 8 6C9.10457 6 10 6.89543 10 8ZM8 16C9.10457 16 10 15.1046 10 14C10 12.8954 9.10457 12 8 12C6.89543 12 6 12.8954 6 14C6 15.1046 6.89543 16 8 16Z"/>
</mask>
<path fill-rule="evenodd" clip-rule="evenodd" d="M10 2C10 3.10457 9.10457 4 8 4C6.89543 4 6 3.10457 6 2C6 0.89543 6.89543 0 8 0C9.10457 0 10 0.89543 10 2ZM10 8C10 9.10457 9.10457 10 8 10C6.89543 10 6 9.10457 6 8C6 6.89543 6.89543 6 8 6C9.10457 6 10 6.89543 10 8ZM8 16C9.10457 16 10 15.1046 10 14C10 12.8954 9.10457 12 8 12C6.89543 12 6 12.8954 6 14C6 15.1046 6.89543 16 8 16Z" fill="white"/>
<path d="M8 6C10.2091 6 12 4.20914 12 2H8V6ZM4 2C4 4.20914 5.79086 6 8 6V2H4ZM8 -2C5.79086 -2 4 -0.209139 4 2H8V-2ZM12 2C12 -0.209139 10.2091 -2 8 -2V2H12ZM8 12C10.2091 12 12 10.2091 12 8H8V12ZM4 8C4 10.2091 5.79086 12 8 12V8H4ZM8 4C5.79086 4 4 5.79086 4 8H8V4ZM12 8C12 5.79086 10.2091 4 8 4V8H12ZM8 14V18C10.2091 18 12 16.2091 12 14H8ZM8 14H12C12 11.7909 10.2091 10 8 10V14ZM8 14V10C5.79086 10 4 11.7909 4 14H8ZM8 14H4C4 16.2091 5.79086 18 8 18V14Z" fill="white" mask="url(#path-4-inside-2)"/>
</g>
</mask>
<g mask="url(#mask0)">
<g id="_/color_dark_gray">
<rect id="Color" x="-4" y="-4" width="24" height="24" fill="#3E4056"/>
</g>
</g>
</g>
</svg>

<svg width="16" height="16" fill="none" xmlns="http://www.w3.org/2000/svg"><g id="a/icon_3_dots_menu"><path id="16x16" opacity=".01" fill="#ECF1F8" d="M0 0h16v16H0z"/><g id="Combined Shape"><mask id="path-2-inside-1" fill="#fff"><path fill-rule="evenodd" clip-rule="evenodd" d="M10 2a2 2 0 11-4 0 2 2 0 014 0zm0 6a2 2 0 11-4 0 2 2 0 014 0zm-2 8a2 2 0 100-4 2 2 0 000 4z"/></mask><path d="M8 6a4 4 0 004-4H8v4zM4 2a4 4 0 004 4V2H4zm4-4a4 4 0 00-4 4h4v-4zm4 4a4 4 0 00-4-4v4h4zM8 12a4 4 0 004-4H8v4zM4 8a4 4 0 004 4V8H4zm4-4a4 4 0 00-4 4h4V4zm4 4a4 4 0 00-4-4v4h4zm-4 6v4a4 4 0 004-4H8zm0 0h4a4 4 0 00-4-4v4zm0 0v-4a4 4 0 00-4 4h4zm0 0H4a4 4 0 004 4v-4z" fill="#3E4056" mask="url(#path-2-inside-1)"/></g><mask id="mask0" maskUnits="userSpaceOnUse" x="6" y="0" width="4" height="16"><g id="Combined Shape_2" fill="#fff"><mask id="path-4-inside-2"><path fill-rule="evenodd" clip-rule="evenodd" d="M10 2a2 2 0 11-4 0 2 2 0 014 0zm0 6a2 2 0 11-4 0 2 2 0 014 0zm-2 8a2 2 0 100-4 2 2 0 000 4z"/></mask><path fill-rule="evenodd" clip-rule="evenodd" d="M10 2a2 2 0 11-4 0 2 2 0 014 0zm0 6a2 2 0 11-4 0 2 2 0 014 0zm-2 8a2 2 0 100-4 2 2 0 000 4z"/><path d="M8 6a4 4 0 004-4H8v4zM4 2a4 4 0 004 4V2H4zm4-4a4 4 0 00-4 4h4v-4zm4 4a4 4 0 00-4-4v4h4zM8 12a4 4 0 004-4H8v4zM4 8a4 4 0 004 4V8H4zm4-4a4 4 0 00-4 4h4V4zm4 4a4 4 0 00-4-4v4h4zm-4 6v4a4 4 0 004-4H8zm0 0h4a4 4 0 00-4-4v4zm0 0v-4a4 4 0 00-4 4h4zm0 0H4a4 4 0 004 4v-4z" mask="url(#path-4-inside-2)"/></g></mask><g mask="url(#mask0)"><g id="_/color_dark_gray"><path id="Color" fill="#3E4056" d="M-4-4h24v24H-4z"/></g></g></g></svg>
